X:1
T:Title
%%score { ( 1 4 ) | ( 2 3 ) }
L:1/8
M:6/8
K:F
V:1 treble nm="Grand Piano"
V:4 treble 
V:2 bass 
V:3 bass 
V:1
 z3 z2[Q:1/4=87] C | [A,F]>GA [B,G]2 [B,C] | [A,F]6[K:bass] | [A,F]>GA [^CE]2 F | [F,A,D]6 | %5
 [B,G]>[A,A]B A2 D | [B,G]>AB d2 d | d>GA [D=B]cd | e-[Cce-][CAe] [Bc]3 |[M:1/8] [Bc] | %10
[M:3/4] [Af]>[ce] [Bd][Ac]- [Ac]/[CGB]/[CFA] | [CEB]3 [CEB]2 [EB] | [Be]>[Bd] [Ac][EG] [FA][GB] | %13
 [FA]4- [FA][Fc] | [Af]>[ce] [Bd][Ac]- [Ac]/[GB]/A | %15
[M:7/8] G2 A B3 d[Q:1/4=86][Q:1/4=84][Q:1/4=83][Q:1/4=82] | %16
[M:3/4] c>F BA F[EG][Q:1/4=81][Q:1/4=79][Q:1/4=78][Q:1/4=77][Q:1/4=75][Q:1/4=74][Q:1/4=73][Q:1/4=72][Q:1/4=70][Q:1/4=69][Q:1/4=68][Q:1/4=67] | %17
[M:5/8] F-F- F3 |] %18
V:2
 z6 | z z/ B,/C [C,,C,]3 | [F,,F,]2 C, F,,2 A, | z z/ B,/C z2 ^C | D,2 A,, D,2 D | %5
 G,>^F,G, [D,F,CD]2 C | z z/[K:treble] C/D .[G,B,DG]3 | [G,F]2- [G,CF-] F-[CF-][=B,F] | %8
 C,[G,A,][G,A,] [G,A,C]3 |[M:1/8] [G,E] |[M:3/4] [F,F]>[F,F] [F,F][F,F]- [F,F]/F,/F, | %11
 G,>^F, G,A, G,[C,C] | [C,C]>[C,C] [C,C][C,C] [C,C][C,C] | z2 C2 z2 | %14
 [F,C]>[F,C] [F,C][K:treble][F,F]- [F,F]/[F,F]/[F,CF] |[M:7/8] [B,F]2 z z z z2 | %16
[M:3/4] [A,CF]>[A,C] [G,DG][CF][K:bass] [C,A,][C,B,] |[M:5/8] [F,A,]-[F,A,]- [F,A,]3 |] %18
V:3
 x6 | [F,,F,]3 z3 | x6 | [F,,F,]3 [A,,A,]3 | x6 | x6 | [G,,G,]3[K:treble] z3 | .=B,3 G,,3 | x6 | %9
[M:1/8] x |[M:3/4] x6 | x6 | x6 | F,A, z D C[F,A,] | x3[K:treble] x3 | %15
[M:7/8] D2- [A,D^F] [G,DG]3 [_A,=B,=F] |[M:3/4] x4[K:bass] x2 |[M:5/8] x5 |] %18
V:4
 x6 | x6 | z3[K:bass] F,2 C | x6 | x6 | D3 z3 | x6 | x6 | .[EG]3 z3 |[M:1/8] x |[M:3/4] x6 | x6 | %12
 x6 | C2 z2 z2 | x6 |[M:7/8] x7 |[M:3/4] x6 |[M:5/8] x5 |] %18

